X: 14379
T: Galtee, The
R: reel
M: 4/4
K: Adorian
|:aged c3A|EA A2 EA A2|aged cAAG|EGGF G2 Be|
aged c2 AG|Gg g2 aaea|aaag egde|1 ecAG EA A2:|2 ecAG EAAB||
|:c2 AB cded|cAAG EAAB|c2 AB cded|cABG EAAB|
cBAB cded|Gg g2 aaea|aaag egde|1 ecAG EA A2:|2 ecAG EAAB||

